X:69
T:Reel de la Petite Cte
C:Richard Forest
O:Qu\'ebec
Q:1/4=210
R:reel
M:C|   
L:1/8     
K:G
(3ABc || ddfe dcAF | GGBd g2 z c |: dd^cd edcd |
B3 A BdBA | GGFG AGFG | D2 D^C DED=C | B,G,B,D GBAG |
F3 F FGFE | DFAd cAFA | [1GBde dcBc :| [2GGBd g2 z2 :|
|: (3cdc Bc d2 (3cdc | (3cdc GB DGBG | AAFA DFAF | GABc dcBd |
(3cdc Bc d2 (3cdc | (3cdc GB DGBG | AAFA DFAF | GBAF G2 z2 :|
|: BdBG DGBG | (3E=FE _E2 D3 G | FGAB cAFA | GABc dgcg |
BdBG DGBG | (3E=FE _E2 D3 G | FGAB cAFA | GBAF G2 z2 :|
